img/03.svg

<svg width="96" height="96" viewBox="0 0 96 96" fill="none" xmlns="http://www.w3.org/2000/svg">
<g clip-path="url(#clip0_0_3267)">
<circle cx="48" cy="48" r="48" fill="#FCB72B"/>
<path d="M39.6684 48.6C39.6684 48.056 39.8684 47.584 40.2684 47.184C40.6684 46.784 41.1404 46.584 41.6844 46.584C42.2284 46.584 42.7004 46.784 43.1004 47.184C43.5004 47.584 43.7004 48.056 43.7004 48.6C43.7004 49.144 43.5004 49.616 43.1004 50.016C42.7004 50.416 42.2284 50.616 41.6844 50.616C41.1404 50.616 40.6684 50.416 40.2684 50.016C39.8684 49.616 39.6684 49.144 39.6684 48.6ZM35.4924 46.728C35.4924 44.552 36.0364 42.864 37.1244 41.664C38.2284 40.464 39.7484 39.864 41.6844 39.864C43.6204 39.864 45.1324 40.464 46.2204 41.664C47.3244 42.864 47.8764 44.552 47.8764 46.728V50.472C47.8764 52.712 47.3244 54.416 46.2204 55.584C45.1324 56.752 43.6204 57.336 41.6844 57.336C39.7484 57.336 38.2284 56.752 37.1244 55.584C36.0364 54.416 35.4924 52.712 35.4924 50.472V46.728ZM41.6844 54.456C42.2604 54.456 42.7404 54.368 43.1244 54.192C43.5084 54 43.8204 53.736 44.0604 53.4C44.3004 53.064 44.4684 52.664 44.5644 52.2C44.6604 51.736 44.7084 51.224 44.7084 50.664V46.536C44.7084 46.008 44.6524 45.512 44.5404 45.048C44.4284 44.584 44.2524 44.184 44.0124 43.848C43.7724 43.512 43.4604 43.248 43.0764 43.056C42.6924 42.848 42.2284 42.744 41.6844 42.744C41.1404 42.744 40.6764 42.848 40.2924 43.056C39.9084 43.248 39.5964 43.512 39.3564 43.848C39.1164 44.184 38.9404 44.584 38.8284 45.048C38.7164 45.512 38.6604 46.008 38.6604 46.536V50.664C38.6604 51.224 38.7084 51.736 38.8044 52.2C38.9004 52.664 39.0684 53.064 39.3084 53.4C39.5484 53.736 39.8604 54 40.2444 54.192C40.6284 54.368 41.1084 54.456 41.6844 54.456ZM53.6763 49.8V44.808L57.8523 43.656V43.224H49.5003V40.2H60.4443V45.48L55.9803 46.776V47.208H56.5563C57.1483 47.208 57.7323 47.304 58.3083 47.496C58.8843 47.672 59.3883 47.952 59.8203 48.336C60.2683 48.72 60.6283 49.2 60.9003 49.776C61.1723 50.336 61.3083 51 61.3083 51.768V52.056C61.3083 52.808 61.1803 53.504 60.9243 54.144C60.6843 54.784 60.3163 55.344 59.8203 55.824C59.3403 56.288 58.7403 56.656 58.0203 56.928C57.3003 57.2 56.4763 57.336 55.5483 57.336C54.6043 57.336 53.7483 57.184 52.9803 56.88C52.2123 56.576 51.5563 56.16 51.0123 55.632C50.4843 55.104 50.0763 54.496 49.7883 53.808C49.5003 53.12 49.3563 52.392 49.3563 51.624V50.616H52.5243V51.48C52.5243 52.248 52.7723 52.912 53.2683 53.472C53.7643 54.032 54.5083 54.312 55.5003 54.312C56.3483 54.312 56.9963 54.096 57.4443 53.664C57.9083 53.232 58.1403 52.664 58.1403 51.96C58.1403 51.208 57.8923 50.664 57.3963 50.328C56.9163 49.976 56.3003 49.8 55.5483 49.8H53.6763Z" fill="#495567"/>
</g>
<defs>
<clipPath id="clip0_0_3267">
<rect width="96" height="96" fill="white"/>
</clipPath>
</defs>
</svg>

<svg xmlns="http://www.w3.org/2000/svg" width="96" height="96" fill="none"><g clip-path="url(#a)"><circle cx="48" cy="48" r="48" fill="#FCB72B"/><path fill="#495567" d="M39.668 48.6c0-.544.2-1.016.6-1.416.4-.4.872-.6 1.416-.6.544 0 1.016.2 1.416.6.4.4.6.872.6 1.416 0 .544-.2 1.016-.6 1.416-.4.4-.872.6-1.416.6-.544 0-1.016-.2-1.416-.6-.4-.4-.6-.872-.6-1.416Zm-4.176-1.872c0-2.176.544-3.864 1.632-5.064 1.104-1.2 2.624-1.8 4.56-1.8 1.936 0 3.448.6 4.536 1.8 1.104 1.2 1.656 2.888 1.656 5.064v3.744c0 2.24-.552 3.944-1.656 5.112-1.088 1.168-2.6 1.752-4.536 1.752-1.936 0-3.456-.584-4.56-1.752-1.088-1.168-1.632-2.872-1.632-5.112v-3.744Zm6.192 7.728c.576 0 1.056-.088 1.44-.264.384-.192.696-.456.936-.792.24-.336.408-.736.504-1.2.096-.464.144-.976.144-1.536v-4.128c0-.528-.056-1.024-.168-1.488a3.423 3.423 0 0 0-.528-1.2c-.24-.336-.552-.6-.936-.792-.384-.208-.848-.312-1.392-.312-.544 0-1.008.104-1.392.312a2.507 2.507 0 0 0-.936.792c-.24.336-.416.736-.528 1.2-.112.464-.168.96-.168 1.488v4.128c0 .56.048 1.072.144 1.536.096.464.264.864.504 1.2.24.336.552.6.936.792.384.176.864.264 1.44.264ZM53.676 49.8v-4.992l4.176-1.152v-.432H49.5V40.2h10.944v5.28l-4.464 1.296v.432h.576c.592 0 1.176.096 1.752.288.576.176 1.08.456 1.512.84.448.384.808.864 1.08 1.44.272.56.408 1.224.408 1.992v.288c0 .752-.128 1.448-.384 2.088a4.52 4.52 0 0 1-1.104 1.68c-.48.464-1.08.832-1.8 1.104-.72.272-1.544.408-2.472.408-.944 0-1.8-.152-2.568-.456a5.91 5.91 0 0 1-1.968-1.248 5.63 5.63 0 0 1-1.656-4.008v-1.008h3.168v.864c0 .768.248 1.432.744 1.992s1.24.84 2.232.84c.848 0 1.496-.216 1.944-.648.464-.432.696-1 .696-1.704 0-.752-.248-1.296-.744-1.632-.48-.352-1.096-.528-1.848-.528h-1.872Z"/></g><defs><clipPath id="a"><path fill="#fff" d="M0 0h96v96H0z"/></clipPath></defs></svg>
